www/assets/icons/data_exploration.svg

<svg xmlns="http://www.w3.org/2000/svg" width="24" height="24" viewBox="0 0 24 24" fill='currentColor'><path d="M12 2C6.48 2 2 6.48 2 12c0 1.33.26 2.61.74 3.77L8 10.5l3.3 2.78L14.58 10H13V8h5v5h-2v-1.58L11.41 16l-3.29-2.79-4.4 4.4A10 10 0 0 0 12 22h8c1.1 0 2-.9 2-2v-8c0-5.52-4.48-10-10-10m7.5 18.5c-.55 0-1-.45-1-1s.45-1 1-1 1 .45 1 1-.45 1-1 1"/></svg>

<svg width="24" height="24" viewBox="0 0 24 24" xmlns="http://www.w3.org/2000/svg" fill='currentColor'><path d="M12 2C6.48 2 2 6.48 2 12C2 13.33 2.26 14.61 2.74 15.77L8 10.5L11.3 13.28L14.58 10H13V8H18V13H16V11.42L11.41 16L8.12 13.21L3.72 17.61C5.52 20.26 8.56 22 12 22H20C21.1 22 22 21.1 22 20V12C22 6.48 17.52 2 12 2ZM19.5 20.5C18.95 20.5 18.5 20.05 18.5 19.5C18.5 18.95 18.95 18.5 19.5 18.5C20.05 18.5 20.5 18.95 20.5 19.5C20.5 20.05 20.05 20.5 19.5 20.5Z"/></svg>
